_uploads/sponsor-duke-and-the-duck.svg

<svg xmlns="http://www.w3.org/2000/svg" width="310" height="68" fill="none" viewBox="0 0 310 68"><g clip-path="url(#clip0)"><path fill="#fff" fill-rule="evenodd" d="M54.8045 56.7668C53.1641 58.4314 50.7669 59.9048 46.6717 59.9048C40.8105 59.9048 36.3965 55.7434 36.3965 49.02V31.8643H46.2939V47.4842C46.2939 49.4699 47.3657 51.8381 50.2649 51.8381C52.7248 51.8381 54.1744 49.7899 54.1744 47.6129V31.8643H64.0078V59.0088H61.8039C59.2996 59.0084 56.8559 58.2257 54.8045 56.7668ZM98.3952 31.8681H86.9491L78.8376 41.2107V31.8643H69.0281V58.6303H78.8376V47.6473L86.8876 58.6303H99.1495L87.8301 44.0505L98.3952 31.8681ZM109.417 40.9851H118.191C118.062 39.1689 116.472 37.1678 113.805 37.1678C110.879 37.1678 109.741 39.2989 109.417 40.9851ZM124.142 49.9823L127.693 56.1423C124.981 58.4773 119.749 59.9048 115.165 59.9048C106.189 59.9048 99.1495 53.2898 99.1495 45.2473C99.1495 36.5547 105.867 30.5897 113.809 30.5897C121.299 30.5897 128.79 36.0551 127.952 46.7577H109.095C109.417 50.7662 112.906 52.1223 116.521 52.1223C119.492 52.1223 122.528 51.0185 124.142 49.981V49.9823ZM235.533 56.7668C233.893 58.4314 231.496 59.9048 227.4 59.9048C221.538 59.9048 217.125 55.7434 217.125 49.02V31.8643H227.023V47.4842C227.023 49.4699 228.093 51.8381 230.992 51.8381C233.452 51.8381 234.902 49.7899 234.902 47.6129V31.8643H244.737V59.0088H242.533C240.028 59.0085 237.585 58.2258 235.533 56.7668ZM270.125 49.3973L274.602 55.2348C271.596 58.6073 267.438 59.9048 263.535 59.9048C255.219 59.9048 248.502 52.9648 248.502 45.2473C248.502 36.8797 255.219 30.5897 263.535 30.5897C268.013 30.5897 272.236 32.6647 274.858 35.4548L270.06 41.7448C269.101 40.641 267.181 38.696 264.751 38.696C261.745 38.696 258.546 40.7073 258.546 45.2473C258.546 49.786 262 51.7973 264.688 51.7973C266.669 51.7973 268.781 50.6948 270.125 49.3973ZM309.245 31.8681H297.801L289.687 41.2107V31.8643H279.878V58.6303H289.687V47.6473L297.738 58.6303H310L298.68 44.0505L309.245 31.8681Z" clip-rule="evenodd"/><path fill="#fff" fill-rule="evenodd" d="M155.709 32.5971H155.458C155.298 32.5971 155.138 32.6061 154.979 32.6099C153.989 32.5394 153.062 32.0912 152.384 31.3552C151.706 30.6192 151.327 29.65 151.324 28.6422C151.327 27.5843 151.743 26.5708 152.481 25.8241C153.219 25.0774 154.218 24.6584 155.26 24.6591C156.302 24.6584 157.301 25.0774 158.039 25.824C158.777 26.5707 159.194 27.5842 159.197 28.6422C159.194 29.621 158.837 30.5646 158.193 31.2936C157.55 32.0227 156.666 32.4866 155.708 32.5971H155.709ZM172.417 54.6383L173.802 53.0081C174.535 52.1437 175.093 51.1409 175.444 50.0571C175.795 48.9733 175.932 47.8299 175.847 46.6923C175.762 45.5547 175.457 44.4453 174.949 43.4277C174.441 42.4101 173.741 41.5042 172.887 40.762L172.467 40.395L166.548 47.363L160.9 40.3606C165.189 38.2422 168.151 33.7876 168.151 28.6422C168.151 25.9783 167.356 23.4993 165.995 21.4306C161.184 18.5603 151.5 18.1805 151.5 18.1805H165.082C166.977 18.1805 168.512 16.6255 168.512 14.7085H163.781V0H147.572V14.7085H146.083C145.175 14.7072 144.303 15.0721 143.66 15.7232C143.016 16.3742 142.654 17.2581 142.652 18.1805H147.578C145.319 19.879 143.669 22.2807 142.879 25.0198C141.853 25.949 139.061 28.0151 134.031 28.6103C133.595 28.6613 133.273 28.8881 133.122 29.2476C132.949 29.6605 133.045 30.2022 133.368 30.6292C133.815 31.2232 134.629 31.6986 135.853 32.0822C137.365 32.5576 139.553 32.6609 141.607 32.6609C142.082 32.6609 142.545 32.6545 142.994 32.6481C143.404 33.9254 144.006 35.1302 144.78 36.2195C143.822 36.9135 142.924 37.69 142.097 38.5405C138.702 42.0379 136.873 46.3663 136.95 50.733C137.113 60.0068 144.706 67.5522 153.876 67.5522C157.39 67.5522 160.165 66.4357 162.597 64.7214C161.53 59.9456 159.613 57.0103 158.813 55.9409C157.092 57.5124 155.61 58.3205 153.81 58.304C149.769 58.2606 146.385 55.0462 146.107 50.9854C146.028 49.9045 146.171 48.8187 146.528 47.7973C146.886 46.776 147.449 45.8415 148.181 45.0535C148.8 44.3818 149.767 43.719 150.831 43.1697L167.626 63.9834C168.474 65.0342 169.541 65.88 170.751 66.4594C171.96 67.0388 173.282 67.3372 174.619 67.333C176.683 67.333 178.7 66.6091 180.297 65.2937L180.729 64.9394L172.417 54.637V54.6383Z" clip-rule="evenodd"/><path fill="#fff" fill-rule="evenodd" d="M14.3152 51.4991C11.0395 51.4991 8.38506 48.6517 8.38506 45.139C8.38506 41.6288 11.0395 38.7814 14.3152 38.7814C17.5909 38.7814 20.2466 41.6288 20.2466 45.1403C20.2466 48.6517 17.5909 51.5004 14.3152 51.5004V51.4991ZM20.3646 15.2949V32.8916C18.3063 31.4323 15.8615 30.5821 13.2359 30.5821C5.92765 30.5821 0 37.1462 0 45.2435C0 53.3409 5.9264 59.9049 13.2371 59.9049C16.4036 59.9049 19.3091 58.6711 21.587 56.6165C23.8944 58.1605 26.5964 58.9846 29.3596 58.9872H30.1215V15.2949H20.3634H20.3646ZM196.299 51.4991C193.023 51.4991 190.369 48.6517 190.369 45.139C190.369 41.6288 193.023 38.7814 196.299 38.7814C199.575 38.7814 202.229 41.6288 202.229 45.1403C202.229 48.6517 199.575 51.5004 196.299 51.5004V51.4991ZM202.348 15.2949V32.8916C200.29 31.4323 197.845 30.5821 195.22 30.5821C187.91 30.5821 181.984 37.1462 181.984 45.2435C181.984 53.3409 187.91 59.9049 195.22 59.9049C198.387 59.9049 201.293 58.6711 203.571 56.6165C205.878 58.1605 208.58 58.9846 211.343 58.9872H212.105V15.2949H202.347H202.348Z" clip-rule="evenodd"/></g><defs><clipPath id="clip0"><rect width="310" height="67.552" fill="#fff"/></clipPath></defs></svg>

<svg xmlns="http://www.w3.org/2000/svg" width="310" height="68" fill="none"><g clip-path="url(#clip0)"><path fill="#fff" fill-rule="evenodd" d="M54.804 56.767c-1.64 1.664-4.037 3.138-8.132 3.138-5.861 0-10.275-4.162-10.275-10.885V31.864h9.897v15.62c0 1.986 1.072 4.354 3.97 4.354 2.46 0 3.91-2.048 3.91-4.225V31.864h9.834V59.01h-2.204c-2.504 0-4.948-.783-7-2.242zm43.591-24.899H86.95l-8.111 9.343v-9.347h-9.81V58.63h9.81V47.647l8.05 10.983h12.261L87.83 44.05l10.565-12.182zm11.022 9.117h8.774c-.129-1.816-1.719-3.817-4.386-3.817-2.926 0-4.064 2.13-4.388 3.817zm14.725 8.997l3.551 6.16c-2.712 2.335-7.944 3.763-12.528 3.763-8.976 0-16.016-6.615-16.016-14.658 0-8.692 6.718-14.657 14.66-14.657 7.49 0 14.981 5.465 14.143 16.168h-18.857c.322 4.008 3.811 5.364 7.426 5.364 2.971 0 6.007-1.103 7.621-2.141v.001zm111.391 6.785c-1.64 1.664-4.037 3.138-8.133 3.138-5.862 0-10.275-4.162-10.275-10.885V31.864h9.898v15.62c0 1.986 1.07 4.354 3.969 4.354 2.46 0 3.91-2.048 3.91-4.225V31.864h9.835V59.01h-2.204c-2.505 0-4.948-.783-7-2.242zm34.592-7.37l4.477 5.838c-3.006 3.372-7.164 4.67-11.067 4.67-8.316 0-15.033-6.94-15.033-14.658 0-8.367 6.717-14.657 15.033-14.657 4.478 0 8.701 2.075 11.323 4.865l-4.798 6.29c-.959-1.104-2.879-3.049-5.309-3.049-3.006 0-6.205 2.011-6.205 6.551 0 4.539 3.454 6.55 6.142 6.55 1.981 0 4.093-1.102 5.437-2.4zm39.12-17.529h-11.444l-8.114 9.343v-9.347h-9.809V58.63h9.809V47.647l8.051 10.983H310l-11.32-14.58 10.565-12.182zm-153.536.73h-.251c-.16 0-.32.008-.479.012a3.906 3.906 0 0 1-2.595-1.255 4.023 4.023 0 0 1-1.06-2.713 4.026 4.026 0 0 1 1.157-2.818 3.903 3.903 0 0 1 2.779-1.165c1.042 0 2.041.418 2.779 1.165a4.027 4.027 0 0 1 1.158 2.818 4.024 4.024 0 0 1-1.004 2.652 3.912 3.912 0 0 1-2.485 1.303h.001zm16.708 22.04l1.385-1.63a8.713 8.713 0 0 0 1.642-2.95 8.796 8.796 0 0 0-.495-6.63 8.645 8.645 0 0 0-2.062-2.666l-.42-.367-5.919 6.968-5.648-7.002a13.06 13.06 0 0 0 7.251-11.719 13.08 13.08 0 0 0-2.156-7.211c-4.811-2.87-14.495-3.25-14.495-3.25h13.582c1.895 0 3.43-1.556 3.43-3.473h-4.731V0h-16.209v14.709h-1.489a3.399 3.399 0 0 0-2.423 1.014 3.505 3.505 0 0 0-1.008 2.457h4.926a13.088 13.088 0 0 0-4.699 6.84c-1.026.929-3.818 2.995-8.848 3.59-.436.051-.758.278-.909.638-.173.412-.077.954.246 1.381.447.594 1.261 1.07 2.485 1.453 1.512.476 3.7.579 5.754.579.475 0 .938-.007 1.387-.013a13.051 13.051 0 0 0 1.786 3.571 20.596 20.596 0 0 0-2.683 2.322c-3.395 3.497-5.224 7.825-5.147 12.192.163 9.274 7.756 16.82 16.926 16.82 3.514 0 6.289-1.117 8.721-2.832-1.067-4.775-2.984-7.71-3.784-8.78-1.721 1.571-3.203 2.38-5.003 2.363-4.041-.043-7.425-3.258-7.703-7.319a7.916 7.916 0 0 1 .421-3.188 7.843 7.843 0 0 1 1.653-2.743c.619-.672 1.586-1.335 2.65-1.884l16.795 20.813a9.027 9.027 0 0 0 3.125 2.476 8.954 8.954 0 0 0 9.546-1.166l.432-.354-8.312-10.302v.001zM14.315 51.5c-3.275 0-5.93-2.847-5.93-6.36 0-3.51 2.655-6.358 5.93-6.358 3.276 0 5.932 2.848 5.932 6.36 0 3.51-2.656 6.36-5.932 6.36v-.002zm6.05-36.204v17.597c-2.059-1.46-4.503-2.31-7.13-2.31C5.929 30.582 0 37.146 0 45.243c0 8.098 5.926 14.662 13.237 14.662 3.167 0 6.072-1.234 8.35-3.288a13.996 13.996 0 0 0 7.773 2.37h.762V15.295h-9.759.002zm175.934 36.204c-3.276 0-5.93-2.847-5.93-6.36 0-3.51 2.654-6.358 5.93-6.358s5.93 2.848 5.93 6.36c0 3.51-2.654 6.36-5.93 6.36v-.002zm6.049-36.204v17.597c-2.058-1.46-4.503-2.31-7.128-2.31-7.31 0-13.236 6.564-13.236 14.661 0 8.098 5.926 14.662 13.236 14.662 3.167 0 6.073-1.234 8.351-3.288a13.993 13.993 0 0 0 7.772 2.37h.762V15.295h-9.758.001z" clip-rule="evenodd"/></g><defs><clipPath id="clip0"><path fill="#fff" d="M0 0H310V67.552H0z"/></clipPath></defs></svg>
